src/assets/icons/chains/bsc.svg

<svg width="32" height="32" viewBox="0 0 32 32" fill="none" xmlns="http://www.w3.org/2000/svg">
<rect width="32" height="32" fill="black"/>
<path d="M10.3366 9.06342L15.6439 6L20.9513 9.06342L19 10.1951L15.6439 8.26342L12.2878 10.1951L10.3366 9.06342ZM20.9513 12.9268L19 11.7951L15.6439 13.7268L12.2878 11.7951L10.3366 12.9268V15.1903L13.6927 17.1219V20.9853L15.6439 22.1171L17.5952 20.9853V17.1219L20.9513 15.1903V12.9268ZM20.9513 19.0537V16.7902L19 17.9219V20.1853L20.9513 19.0537ZM22.3366 19.8537L18.9805 21.7853V24.0487L24.2878 20.9853V14.8585L22.3366 15.9902V19.8537ZM20.3854 10.9951L22.3366 12.1268V14.3903L24.2878 13.2585V10.9951L22.3366 9.86342L20.3854 10.9951ZM13.6927 22.6049V24.8683L15.6439 26L17.5952 24.8683V22.6049L15.6439 23.7366L13.6927 22.6049ZM10.3366 19.0537L12.2878 20.1853V17.9219L10.3366 16.7902V19.0537ZM13.6927 10.9951L15.6439 12.1268L17.5952 10.9951L15.6439 9.86342L13.6927 10.9951ZM8.95122 12.1268L10.9024 10.9951L8.95122 9.86342L7 10.9951V13.2585L8.95122 14.3903V12.1268ZM8.95122 15.9902L7 14.8585V20.9853L12.3073 24.0487V21.7853L8.95122 19.8537V15.9902Z" fill="#F0B90B"/>
</svg>

<svg xmlns="http://www.w3.org/2000/svg" width="32" height="32" fill="none" viewBox="0 0 32 32">
  <path fill="#000" d="M0 0h32v32H0z"/>
  <path fill="#F0B90B" d="M10.337 9.063 15.644 6l5.307 3.063L19 10.195l-3.356-1.932-3.356 1.932-1.951-1.132Zm10.614 3.864L19 11.795l-3.356 1.932-3.356-1.932-1.951 1.132v2.263l3.356 1.932v3.863l1.95 1.132 1.952-1.132v-3.863l3.356-1.932v-2.263Zm0 6.127V16.79L19 17.922v2.263l1.951-1.131Zm1.386.8-3.357 1.931v2.264l5.308-3.064v-6.127l-1.951 1.132v3.864Zm-1.952-8.859 1.952 1.132v2.263l1.95-1.132v-2.263l-1.95-1.132-1.952 1.132Zm-6.692 11.61v2.263L15.643 26l1.952-1.132v-2.263l-1.951 1.132-1.951-1.132Zm-3.356-3.551 1.95 1.131v-2.263l-1.95-1.132v2.264Zm3.356-8.059 1.95 1.132 1.952-1.132-1.951-1.132-1.951 1.132ZM8.95 12.127l1.951-1.132-1.95-1.132L7 10.995v2.264l1.951 1.131v-2.263Zm0 3.863L7 14.858v6.127l5.307 3.064v-2.264l-3.356-1.931V15.99Z"/>
</svg>
